packages/design-assets/icons/16px/Rocket.svg

<?xml version="1.0" encoding="UTF-8"?>
<svg width="16px" height="16px" viewBox="0 0 16 16" version="1.1" xmlns="http://www.w3.org/2000/svg" xmlns:xlink="http://www.w3.org/1999/xlink">
    <!-- Generator: Sketch 54.1 (76490) - https://sketchapp.com -->
    <title>Icons/16px/Rocket</title>
    <desc>Created with Sketch.</desc>
    <g id="Icons/16px/Rocket" stroke="none" stroke-width="1" fill="none" fill-rule="evenodd">
        <path d="M8.13604779,2.04551007 C10.0926441,0.860185699 12.3592223,0.136546859 14.9478604,0.00139258334 C15.5423523,-0.0296461752 16.0321387,0.462376766 15.9983919,1.05672102 C15.8525416,3.62541552 15.1276679,5.87923126 13.9482063,7.82962018 C14.7043501,10.0542854 14.1530867,12.558878 12.441859,14.2701057 C12.071663,14.6403017 11.6545588,14.9583401 11.1920096,15.2318267 C10.7990882,15.4641453 10.2987185,15.4009078 9.97594987,15.0781392 L8.23510486,13.3372942 C7.73160485,13.6258884 7.33013254,13.8195268 7.07050356,13.9256678 C6.69767308,14.0780877 6.26979103,13.99195 5.98498024,13.7071392 L2.29289322,10.0150522 C2.00959897,9.73175791 1.9227304,9.30672853 2.07214853,8.93499545 C2.17728514,8.67342907 2.37009298,8.26811917 2.65845138,7.75967759 L0.922893219,6.02411943 C0.600330226,5.70155644 0.536944612,5.20158437 0.768808464,4.80873208 C1.04127938,4.3470783 1.3595289,3.92960813 1.72996359,3.55917344 C3.43049678,1.85864025 5.91777818,1.30626171 8.13604779,2.04551007 L8.13604779,2.04551007 Z M3.7757275,6.04852658 C4.18354238,5.50205531 4.63773843,4.96484658 5.14045765,4.44689872 C5.37958837,4.20052413 5.6253798,3.96273245 5.87787127,3.73393652 C4.87212231,3.80009673 3.89544094,4.22212322 3.14417715,4.973387 C3.07049126,5.04707289 2.99957438,5.12396923 2.93130854,5.20410762 L3.7757275,6.04852658 L3.7757275,6.04852658 Z M12.2729086,10.0806926 C12.0434485,10.3357664 11.8049372,10.5841387 11.5577927,10.825848 C11.0348661,11.3372745 10.4922904,11.7993219 9.94036344,12.2141256 L10.7958866,13.0696488 C10.8764327,13.001078 10.9536632,12.9298743 11.0276454,12.8558921 C11.7903392,12.0931983 12.2146375,11.0999534 12.2729086,10.0806926 L12.2729086,10.0806926 Z M7.48053998,11.4614751 C8.39309614,10.9152663 9.30747459,10.2291787 10.159389,9.39599942 C12.1409721,7.45799482 13.4718688,5.05022953 13.8872118,2.10775732 C10.9249926,2.51222147 8.51074991,3.84609858 6.57561194,5.83985678 C5.74972849,6.69075834 5.07099147,7.60409639 4.53182353,8.51562384 C4.41012928,8.72136243 4.30168096,8.91687227 4.20617639,9.0999082 L6.89707818,11.79081 C7.07989901,11.6941064 7.27512875,11.5844236 7.48053998,11.4614751 Z M3.914,14.9140324 C3.133,15.6950324 0,16.0000324 0,16.0000324 C0,16.0000324 0.305,12.8670324 1.086,12.0860324 C1.867,11.3050324 3.133,11.3050324 3.914,12.0860324 C4.695,12.8670324 4.695,14.1330324 3.914,14.9140324 Z M9,8.00003239 C8.44771525,8.00003239 8,7.55231714 8,7.00003239 C8,6.44774764 8.44771525,6.00003239 9,6.00003239 C9.55228475,6.00003239 10,6.44774764 10,7.00003239 C10,7.55231714 9.55228475,8.00003239 9,8.00003239 Z" id="i-16-rocket" fill="#818F99"></path>
    </g>
</svg>

<svg width="16" height="16" xmlns="http://www.w3.org/2000/svg"><path d="M8.136 2.046C10.093.86 12.359.136 14.948 0a1 1 0 0 1 1.05 1.056c-.145 2.568-.87 4.822-2.05 6.773a6.26 6.26 0 0 1-1.506 6.44 6.26 6.26 0 0 1-1.25.962 1 1 0 0 1-1.216-.154l-1.74-1.74c-.504.288-.906.482-1.165.588a1 1 0 0 1-1.086-.219l-3.692-3.692a1 1 0 0 1-.22-1.08c.104-.262.297-.667.585-1.175L.923 6.024A1 1 0 0 1 .769 4.81c.272-.462.59-.88.961-1.25a6.26 6.26 0 0 1 6.406-1.513zm-4.36 4.003a16.28 16.28 0 0 1 2.102-2.315 4.255 4.255 0 0 0-2.947 1.47l.845.845zm8.497 4.032a16.439 16.439 0 0 1-2.333 2.133l.856.856a4.264 4.264 0 0 0 1.477-2.989zM7.48 11.46a14.47 14.47 0 0 0 2.678-2.065c1.982-1.938 3.313-4.346 3.728-7.288-2.962.404-5.376 1.738-7.311 3.732a14.317 14.317 0 0 0-2.37 3.26l2.691 2.69c.183-.096.378-.206.584-.329zm-3.567 3.453C3.133 15.695 0 16 0 16s.305-3.133 1.086-3.914a2 2 0 1 1 2.828 2.828zM9 8a1 1 0 1 1 0-2 1 1 0 0 1 0 2z" fill="#818F99" fill-rule="evenodd"/></svg>
